X:1
T: Sgian Dubh
C:
R:Jig
Q:180
K:Bm
M:6/8
L:1/16
DC|:B,4B2 B4F2|A2F2A2 E2C2A,2|B,4B2 B4F2|B2c2d2 c4B2|
B,4B2 B4F2|A2F2A2 E2C2A,2|D6 E6|1F2D2B,2  B,4DC:|2F2D2B,2 B,4e2|
|:f4B2 B2c2d2|c2B2A2 e2c2A2|f4B2 B2c2B2|f2g2e2 f2d2B2|
|1f4B2 B2c2d2|c2B2A2 e2c2A2|d2e2f2 e2d2c2|f2d2B2 B4e2:|
|2f2a2f2 e2a2e2|c2e2a2 e2c2A2|D2E2F2 E2F2G2|F2D2B,2 B,4||
